symbols/web/screen_search_desktop/materialsymbolsoutlined/screen_search_desktop_wght700gradN25_24px.svg

<svg xmlns="http://www.w3.org/2000/svg" height="24" width="24"><path d="m15.425 15 1.025-1-2.1-2.1q.275-.425.412-.875.138-.45.138-.975 0-1.425-.987-2.413-.988-.987-2.413-.987-1.4 0-2.4.987-1 .988-1 2.413 0 1.425 1 2.412 1 .988 2.4.988.525 0 .975-.138.45-.137.9-.412ZM11.5 12.025q-.8 0-1.387-.575-.588-.575-.588-1.4t.575-1.4q.575-.575 1.4-.575.8 0 1.388.575.587.575.587 1.4 0 .8-.575 1.388-.575.587-1.4.587ZM4.425 18.7q-1.275 0-2.15-.875t-.875-2.15V5.45q0-1.275.875-2.15t2.15-.875h15.15q1.275 0 2.15.875t.875 2.15v10.225q0 1.275-.875 2.15t-2.15.875Zm0-3.025h15.15V5.45H4.425v10.225Zm-2.8 6.25q-.475 0-.812-.338-.338-.337-.338-.812 0-.45.338-.775.337-.325.812-.325H22.4q.45 0 .788.325.337.325.337.8 0 .45-.337.787-.338.338-.788.338Zm2.8-6.25V5.45v10.225Z"/></svg>

<svg xmlns="http://www.w3.org/2000/svg" height="24" width="24"><path d="M15.425 15 16.45 14 14.35 11.9Q14.625 11.475 14.762 11.025Q14.9 10.575 14.9 10.05Q14.9 8.625 13.913 7.637Q12.925 6.65 11.5 6.65Q10.1 6.65 9.1 7.637Q8.1 8.625 8.1 10.05Q8.1 11.475 9.1 12.462Q10.1 13.45 11.5 13.45Q12.025 13.45 12.475 13.312Q12.925 13.175 13.375 12.9ZM11.5 12.025Q10.7 12.025 10.113 11.45Q9.525 10.875 9.525 10.05Q9.525 9.225 10.1 8.65Q10.675 8.075 11.5 8.075Q12.3 8.075 12.888 8.65Q13.475 9.225 13.475 10.05Q13.475 10.85 12.9 11.438Q12.325 12.025 11.5 12.025ZM4.425 18.7Q3.15 18.7 2.275 17.825Q1.4 16.95 1.4 15.675V5.45Q1.4 4.175 2.275 3.3Q3.15 2.425 4.425 2.425H19.575Q20.85 2.425 21.725 3.3Q22.6 4.175 22.6 5.45V15.675Q22.6 16.95 21.725 17.825Q20.85 18.7 19.575 18.7ZM4.425 15.675H19.575Q19.575 15.675 19.575 15.675Q19.575 15.675 19.575 15.675V5.45Q19.575 5.45 19.575 5.45Q19.575 5.45 19.575 5.45H4.425Q4.425 5.45 4.425 5.45Q4.425 5.45 4.425 5.45V15.675Q4.425 15.675 4.425 15.675Q4.425 15.675 4.425 15.675ZM1.625 21.925Q1.15 21.925 0.813 21.587Q0.475 21.25 0.475 20.775Q0.475 20.325 0.813 20Q1.15 19.675 1.625 19.675H22.4Q22.85 19.675 23.188 20Q23.525 20.325 23.525 20.8Q23.525 21.25 23.188 21.587Q22.85 21.925 22.4 21.925ZM4.425 15.675Q4.425 15.675 4.425 15.675Q4.425 15.675 4.425 15.675V5.45Q4.425 5.45 4.425 5.45Q4.425 5.45 4.425 5.45Q4.425 5.45 4.425 5.45Q4.425 5.45 4.425 5.45V15.675Q4.425 15.675 4.425 15.675Q4.425 15.675 4.425 15.675Z"/></svg>
